Newaita-dark/.places-blue/64/folder-unlocked.svg

<?xml version="1.0" encoding="UTF-8"?>
<svg xmlns="http://www.w3.org/2000/svg" xmlns:xlink="http://www.w3.org/1999/xlink" width="64pt" height="64pt" viewBox="0 0 64 64" version="1.1">
<defs>
<linearGradient id="linear0" gradientUnits="userSpaceOnUse" x1="254" y1="233.5" x2="254" y2="254.666672" gradientTransform="matrix(0.125012,0,0,0.125012,-0.00000763012,26.87757)">
<stop offset="0" style="stop-color:rgb(0%,0%,0%);stop-opacity:0.27451;"/>
<stop offset="1" style="stop-color:rgb(0%,0%,0%);stop-opacity:0;"/>
</linearGradient>
<radialGradient id="radial0" gradientUnits="userSpaceOnUse" cx="450.908936" cy="189.579361" fx="450.908936" fy="189.579361" r="21.166656" gradientTransform="matrix(0.000000348341,-0.156265,-0.281277,-0.000000203077,108.230425,127.190665)">
<stop offset="0" style="stop-color:rgb(0%,0%,0%);stop-opacity:0.313725;"/>
<stop offset="0.222222" style="stop-color:rgb(0%,0%,0%);stop-opacity:0.27451;"/>
<stop offset="1" style="stop-color:rgb(0%,0%,0%);stop-opacity:0;"/>
</radialGradient>
<radialGradient id="radial1" gradientUnits="userSpaceOnUse" cx="450.908936" cy="189.579361" fx="450.908936" fy="189.579361" r="21.166656" gradientTransform="matrix(-0.000000348341,0.156265,0.281277,0.000000203077,-44.724356,-15.054958)">
<stop offset="0" style="stop-color:rgb(0%,0%,0%);stop-opacity:0.313725;"/>
<stop offset="0.222222" style="stop-color:rgb(0%,0%,0%);stop-opacity:0.27451;"/>
<stop offset="1" style="stop-color:rgb(0%,0%,0%);stop-opacity:0;"/>
</radialGradient>
<radialGradient id="radial2" gradientUnits="userSpaceOnUse" cx="450.908936" cy="189.579361" fx="450.908936" fy="189.579361" r="21.166656" gradientTransform="matrix(-0.000000348341,-0.156265,0.281277,-0.000000203077,-44.724356,127.190665)">
<stop offset="0" style="stop-color:rgb(0%,0%,0%);stop-opacity:0.313725;"/>
<stop offset="0.222222" style="stop-color:rgb(0%,0%,0%);stop-opacity:0.27451;"/>
<stop offset="1" style="stop-color:rgb(0%,0%,0%);stop-opacity:0;"/>
</radialGradient>
<radialGradient id="radial3" gradientUnits="userSpaceOnUse" cx="450.908936" cy="189.579361" fx="450.908936" fy="189.579361" r="21.166656" gradientTransform="matrix(0.000000348341,0.156265,-0.281277,0.000000203077,108.230422,-15.054959)">
<stop offset="0" style="stop-color:rgb(0%,0%,0%);stop-opacity:0.313725;"/>
<stop offset="0.222222" style="stop-color:rgb(0%,0%,0%);stop-opacity:0.27451;"/>
<stop offset="1" style="stop-color:rgb(0%,0%,0%);stop-opacity:0;"/>
</radialGradient>
<linearGradient id="linear1" gradientUnits="userSpaceOnUse" x1="296.333344" y1="233.5" x2="296.333344" y2="-147.5" gradientTransform="matrix(0.125012,0,0,0.125012,0,26.877566)">
<stop offset="0" style="stop-color:rgb(12.941176%,58.823529%,95.294118%);stop-opacity:1;"/>
<stop offset="1" style="stop-color:rgb(25.882353%,64.705882%,96.078431%);stop-opacity:1;"/>
</linearGradient>
<linearGradient id="linear2" gradientUnits="userSpaceOnUse" x1="254" y1="-147.5" x2="254" y2="233.5" gradientTransform="matrix(0.125012,0,0,0.125012,0,26.877566)">
<stop offset="0" style="stop-color:rgb(39.215686%,70.980392%,96.470588%);stop-opacity:1;"/>
<stop offset="1" style="stop-color:rgb(25.882353%,64.705882%,96.078431%);stop-opacity:1;"/>
</linearGradient>
<linearGradient id="linear3" gradientUnits="userSpaceOnUse" x1="960" y1="1695.118164" x2="960" y2="255.118118" gradientTransform="matrix(0.264583,0,0,0.264583,0.00000233333,-215)">
<stop offset="0" style="stop-color:rgb(12.941176%,58.823529%,95.294118%);stop-opacity:1;"/>
<stop offset="1" style="stop-color:rgb(25.882353%,64.705882%,96.078431%);stop-opacity:1;"/>
</linearGradient>
</defs>
<g id="surface1">
<path style=" stroke:none;fill-rule:nonzero;fill:url(#linear0);" d="M 7.9375 56.066406 L 55.566406 56.066406 L 55.566406 58.714844 L 7.9375 58.714844 Z M 7.9375 56.066406 "/>
<path style=" stroke:none;fill-rule:nonzero;fill:url(#radial0);" d="M 55.566406 56.066406 L 60.859375 56.066406 L 60.859375 53.421875 L 55.566406 53.421875 Z M 55.566406 56.066406 "/>
<path style=" stroke:none;fill-rule:nonzero;fill:url(#radial1);" d="M 7.9375 56.066406 L 2.644531 56.066406 L 2.644531 58.714844 L 7.9375 58.714844 Z M 7.9375 56.066406 "/>
<path style=" stroke:none;fill-rule:nonzero;fill:url(#radial2);" d="M 7.9375 56.066406 L 2.644531 56.066406 L 2.644531 53.421875 L 7.9375 53.421875 Z M 7.9375 56.066406 "/>
<path style=" stroke:none;fill-rule:nonzero;fill:url(#radial3);" d="M 55.566406 56.066406 L 60.859375 56.066406 L 60.859375 58.714844 L 55.566406 58.714844 Z M 55.566406 56.066406 "/>
<path style=" stroke:none;fill-rule:nonzero;fill:url(#linear1);" d="M 14.554688 8.4375 L 57.550781 8.4375 C 59.015625 8.4375 60.199219 9.621094 60.199219 11.085938 L 60.199219 21.007812 C 60.199219 22.46875 59.015625 23.652344 57.550781 23.652344 L 14.554688 23.652344 C 13.09375 23.652344 11.90625 22.46875 11.90625 21.007812 L 11.90625 11.085938 C 11.90625 9.621094 13.09375 8.4375 14.554688 8.4375 Z M 14.554688 8.4375 "/>
<path style=" stroke:none;fill-rule:nonzero;fill:rgb(90.196079%,90.196079%,90.196079%);fill-opacity:0.588235;" d="M 14.554688 8.4375 C 13.085938 8.4375 11.90625 9.617188 11.90625 11.085938 L 11.90625 11.414062 C 11.90625 9.949219 13.085938 8.769531 14.554688 8.769531 L 57.550781 8.769531 C 59.019531 8.769531 60.199219 9.949219 60.199219 11.414062 L 60.199219 11.085938 C 60.199219 9.617188 59.019531 8.4375 57.550781 8.4375 Z M 14.554688 8.4375 "/>
<path style=" stroke:none;fill-rule:nonzero;fill:rgb(12.941177%,12.941177%,12.941177%);fill-opacity:1;" d="M 14.554688 8.25 C 12.988281 8.25 11.71875 9.519531 11.71875 11.085938 L 11.71875 21.007812 C 11.71875 22.574219 12.988281 23.839844 14.554688 23.839844 L 57.550781 23.839844 C 59.117188 23.839844 60.386719 22.574219 60.386719 21.007812 L 60.386719 11.085938 C 60.386719 9.519531 59.117188 8.25 57.550781 8.25 Z M 14.554688 8.625 L 57.550781 8.625 C 58.917969 8.625 60.011719 9.71875 60.011719 11.085938 L 60.011719 21.007812 C 60.011719 22.371094 58.917969 23.464844 57.550781 23.464844 L 14.554688 23.464844 C 13.1875 23.464844 12.09375 22.371094 12.09375 21.007812 L 12.09375 11.085938 C 12.09375 9.71875 13.1875 8.625 14.554688 8.625 Z M 14.554688 8.625 "/>
<path style=" stroke:none;fill-rule:nonzero;fill:url(#linear2);" d="M 5.292969 13.730469 C 3.828125 13.730469 2.644531 14.910156 2.644531 16.375 L 2.644531 53.421875 C 2.644531 54.886719 3.828125 56.066406 5.292969 56.066406 L 58.214844 56.066406 C 59.679688 56.066406 60.859375 54.886719 60.859375 53.421875 L 60.859375 20.34375 L 25.136719 20.34375 C 23.671875 20.34375 22.492188 19.164062 22.492188 17.699219 L 22.492188 13.730469 Z M 5.292969 13.730469 "/>
<path style=" stroke:none;fill-rule:nonzero;fill:rgb(0%,0%,0%);fill-opacity:0.196078;" d="M 5.292969 56.066406 C 3.828125 56.066406 2.644531 54.886719 2.644531 53.421875 L 2.644531 53.089844 C 2.644531 54.558594 3.828125 55.738281 5.292969 55.738281 L 58.214844 55.738281 C 59.679688 55.738281 60.859375 54.558594 60.859375 53.089844 L 60.859375 53.421875 C 60.859375 54.886719 59.679688 56.066406 58.214844 56.066406 Z M 5.292969 56.066406 "/>
<path style=" stroke:none;fill-rule:nonzero;fill:rgb(90.196079%,90.196079%,90.196079%);fill-opacity:0.937255;" d="M 5.292969 13.730469 C 3.828125 13.730469 2.644531 14.910156 2.644531 16.375 L 2.644531 16.707031 C 2.644531 15.242188 3.828125 14.0625 5.292969 14.0625 L 22.492188 14.0625 L 22.492188 13.730469 Z M 5.292969 13.730469 "/>
<path style=" stroke:none;fill-rule:nonzero;fill:rgb(90.196079%,90.196079%,90.196079%);fill-opacity:0.937255;" d="M 24.972656 20.511719 C 23.507812 20.511719 22.328125 19.332031 22.328125 17.863281 L 22.328125 17.535156 C 22.328125 19 23.507812 20.183594 24.972656 20.179688 L 60.859375 20.179688 L 60.859375 20.511719 Z M 24.972656 20.511719 "/>
<path style=" stroke:none;fill-rule:nonzero;fill:rgb(12.941177%,12.941177%,12.941177%);fill-opacity:1;" d="M 5.292969 13.542969 C 3.726562 13.542969 2.457031 14.808594 2.457031 16.375 L 2.457031 53.421875 C 2.457031 54.988281 3.726562 56.253906 5.292969 56.253906 L 58.214844 56.253906 C 59.78125 56.253906 61.046875 54.988281 61.046875 53.421875 L 61.046875 19.96875 L 25.136719 19.96875 C 23.773438 19.96875 22.679688 18.878906 22.679688 17.511719 L 22.679688 13.542969 Z M 5.292969 13.917969 L 22.304688 13.917969 L 22.304688 17.511719 C 22.304688 19.078125 23.570312 20.34375 25.136719 20.34375 L 60.671875 20.34375 L 60.671875 53.421875 C 60.671875 54.785156 59.578125 55.878906 58.214844 55.878906 L 5.292969 55.878906 C 3.925781 55.878906 2.832031 54.785156 2.832031 53.421875 L 2.832031 16.375 C 2.832031 15.011719 3.925781 13.917969 5.292969 13.917969 Z M 5.292969 13.917969 "/>
<path style="fill-rule:nonzero;fill:url(#linear3);stroke-width:3;stroke-linecap:round;stroke-linejoin:miter;stroke:rgb(12.941177%,12.941177%,12.941177%);stroke-opacity:1;stroke-miterlimit:4;" d="M 211.667287 -9.925834 C 205.792848 -9.925834 201.074548 -5.207534 201.074548 0.666905 L 201.074548 43.006612 L 222.260025 43.006612 L 222.260025 16.540389 C 222.260025 13.603169 224.603551 11.259643 227.540771 11.259643 L 280.473216 11.259643 C 283.379189 11.259643 285.753962 13.603169 285.753962 16.540389 L 285.753962 74.75358 L 190.513057 74.75358 C 184.638618 74.75358 179.920318 79.471879 179.920318 85.346318 L 179.920318 148.840255 C 179.920318 154.683447 184.638618 159.401746 190.513057 159.401746 L 317.50093 159.401746 C 323.375369 159.401746 328.093669 154.683447 328.093669 148.840255 L 328.093669 85.346318 C 328.093669 79.471879 323.375369 74.75358 317.50093 74.75358 L 306.908192 74.75358 L 306.908192 0.666905 C 306.908192 -5.207534 302.189892 -9.925834 296.3467 -9.925834 Z M 254.006994 90.627064 C 254.194476 90.627064 254.350711 90.627064 254.538193 90.627064 C 263.099875 90.939534 269.880478 97.876372 269.880478 106.500548 C 269.880478 111.218848 267.818175 115.437195 264.568485 118.343167 L 264.568485 132.966771 C 264.568485 138.809963 259.850186 143.528262 254.006994 143.528262 C 248.132555 143.528262 243.414255 138.809963 243.414255 132.966771 L 243.414255 118.343167 C 240.164565 115.437195 238.133509 111.218848 238.133509 106.500548 C 238.133509 97.876372 244.914112 90.939534 253.444547 90.627064 C 253.632029 90.627064 253.819511 90.627064 254.006994 90.627064 Z M 254.006994 90.627064 " transform="matrix(0.125012,0,0,0.125012,0,26.877566)"/>
</g>
</svg>

<svg xmlns="http://www.w3.org/2000/svg" width="64pt" height="64pt" viewBox="0 0 64 64"><defs><linearGradient id="a" gradientUnits="userSpaceOnUse" x1="254" y1="233.5" x2="254" y2="254.667" gradientTransform="translate(0 26.878) scale(.12501)"><stop offset="0" stop-opacity=".275"/><stop offset="1" stop-opacity="0"/></linearGradient><radialGradient id="b" gradientUnits="userSpaceOnUse" cx="450.909" cy="189.579" fx="450.909" fy="189.579" r="21.167" gradientTransform="matrix(0 -.15626 -.28128 0 108.23 127.19)"><stop offset="0" stop-opacity=".314"/><stop offset=".222" stop-opacity=".275"/><stop offset="1" stop-opacity="0"/></radialGradient><radialGradient id="c" gradientUnits="userSpaceOnUse" cx="450.909" cy="189.579" fx="450.909" fy="189.579" r="21.167" gradientTransform="matrix(0 .15626 .28128 0 -44.724 -15.055)"><stop offset="0" stop-opacity=".314"/><stop offset=".222" stop-opacity=".275"/><stop offset="1" stop-opacity="0"/></radialGradient><radialGradient id="d" gradientUnits="userSpaceOnUse" cx="450.909" cy="189.579" fx="450.909" fy="189.579" r="21.167" gradientTransform="matrix(0 -.15626 .28128 0 -44.724 127.19)"><stop offset="0" stop-opacity=".314"/><stop offset=".222" stop-opacity=".275"/><stop offset="1" stop-opacity="0"/></radialGradient><radialGradient id="e" gradientUnits="userSpaceOnUse" cx="450.909" cy="189.579" fx="450.909" fy="189.579" r="21.167" gradientTransform="matrix(0 .15626 -.28128 0 108.23 -15.055)"><stop offset="0" stop-opacity=".314"/><stop offset=".222" stop-opacity=".275"/><stop offset="1" stop-opacity="0"/></radialGradient><linearGradient id="f" gradientUnits="userSpaceOnUse" x1="296.333" y1="233.5" x2="296.333" y2="-147.5" gradientTransform="translate(0 26.878) scale(.12501)"><stop offset="0" stop-color="#2196f3"/><stop offset="1" stop-color="#42a5f5"/></linearGradient><linearGradient id="g" gradientUnits="userSpaceOnUse" x1="254" y1="-147.5" x2="254" y2="233.5" gradientTransform="translate(0 26.878) scale(.12501)"><stop offset="0" stop-color="#64b5f6"/><stop offset="1" stop-color="#42a5f5"/></linearGradient><linearGradient id="h" gradientUnits="userSpaceOnUse" x1="960" y1="1695.118" x2="960" y2="255.118" gradientTransform="matrix(.26458 0 0 .26458 0 -215)"><stop offset="0" stop-color="#2196f3"/><stop offset="1" stop-color="#42a5f5"/></linearGradient></defs><path d="M7.938 56.066h47.628v2.649H7.937zm0 0" fill="url(#a)"/><path d="M55.566 56.066h5.293v-2.644h-5.293zm0 0" fill="url(#b)"/><path d="M7.938 56.066H2.644v2.649h5.292zm0 0" fill="url(#c)"/><path d="M7.938 56.066H2.644v-2.644h5.292zm0 0" fill="url(#d)"/><path d="M55.566 56.066h5.293v2.649h-5.293zm0 0" fill="url(#e)"/><path d="M14.555 8.438H57.55a2.646 2.646 0 0 1 2.648 2.648v9.922a2.645 2.645 0 0 1-2.648 2.644H14.555a2.647 2.647 0 0 1-2.649-2.644v-9.922a2.648 2.648 0 0 1 2.649-2.649zm0 0" fill="url(#f)"/><path d="M14.555 8.438a2.64 2.64 0 0 0-2.649 2.648v.328a2.64 2.64 0 0 1 2.649-2.644H57.55a2.64 2.64 0 0 1 2.648 2.644v-.328a2.64 2.64 0 0 0-2.648-2.649zm0 0" fill="#e6e6e6" fill-opacity=".588"/><path d="M14.555 8.25a2.836 2.836 0 0 0-2.836 2.836v9.922a2.832 2.832 0 0 0 2.836 2.832H57.55a2.832 2.832 0 0 0 2.836-2.832v-9.922A2.836 2.836 0 0 0 57.55 8.25zm0 .375H57.55a2.45 2.45 0 0 1 2.46 2.46v9.923a2.45 2.45 0 0 1-2.46 2.457H14.555a2.45 2.45 0 0 1-2.461-2.457v-9.922a2.45 2.45 0 0 1 2.46-2.461zm0 0" fill="#212121"/><path d="M5.293 13.73a2.642 2.642 0 0 0-2.648 2.645v37.047a2.642 2.642 0 0 0 2.648 2.644h52.922a2.639 2.639 0 0 0 2.644-2.644V20.344H25.137a2.639 2.639 0 0 1-2.645-2.645V13.73zm0 0" fill="url(#g)"/><path d="M5.293 56.066a2.642 2.642 0 0 1-2.648-2.644v-.332a2.643 2.643 0 0 0 2.648 2.648h52.922a2.64 2.64 0 0 0 2.644-2.648v.332a2.639 2.639 0 0 1-2.644 2.644zm0 0" fill-opacity=".196"/><path d="M5.293 13.73a2.642 2.642 0 0 0-2.648 2.645v.332a2.642 2.642 0 0 1 2.648-2.645h17.2v-.332zm0 0M24.973 20.512a2.64 2.64 0 0 1-2.645-2.649v-.328a2.637 2.637 0 0 0 2.645 2.645h35.886v.332zm0 0" fill="#e6e6e6" fill-opacity=".937"/><path d="M5.293 13.543a2.832 2.832 0 0 0-2.836 2.832v37.047a2.832 2.832 0 0 0 2.836 2.832h52.922a2.83 2.83 0 0 0 2.832-2.832V19.969h-35.91a2.447 2.447 0 0 1-2.457-2.457v-3.969zm0 .375h17.012v3.594a2.83 2.83 0 0 0 2.832 2.832h35.535v33.078a2.449 2.449 0 0 1-2.457 2.457H5.293a2.45 2.45 0 0 1-2.461-2.457V16.375a2.45 2.45 0 0 1 2.461-2.457zm0 0" fill="#212121"/><path d="M211.667-9.926A10.562 10.562 0 0 0 201.075.667v42.34h21.185V16.54a5.254 5.254 0 0 1 5.28-5.28h52.933a5.274 5.274 0 0 1 5.281 5.28v58.214h-95.24a10.562 10.562 0 0 0-10.594 10.592v63.494c0 5.843 4.719 10.562 10.593 10.562h126.988c5.874 0 10.593-4.719 10.593-10.562V85.346A10.562 10.562 0 0 0 317.5 74.754h-10.593V.667c0-5.875-4.718-10.593-10.561-10.593zm42.34 100.553h.531c8.562.313 15.342 7.25 15.342 15.874 0 4.718-2.062 8.936-5.312 11.842v14.624a10.548 10.548 0 0 1-10.561 10.561c-5.874 0-10.593-4.718-10.593-10.561v-14.624a15.812 15.812 0 0 1-5.28-11.842c0-8.625 6.78-15.561 15.31-15.874h.563zm0 0" transform="translate(0 26.878) scale(.12501)" fill="url(#h)" stroke-width="3" stroke-linecap="round" stroke="#212121"/></svg>
